X:1
T:Title
%%score { ( 1 4 ) | ( 2 3 ) }
L:1/8
M:4/4
K:D
V:1 treble nm="Grand Piano"
V:4 treble 
V:2 bass 
V:3 bass 
V:1
 z4 z2[Q:1/4=100] [FA]2 | [Fd]3 [DF] [FB]3 [DF] | [FA]G[A,DF]E D3 D | F2 [FA]2 [Fd]2 [A,DF]2 | %4
 [A,CA]6 [A,FA]2 | [DFB]2 [B,FA]2 [B,EG]3 [B,EG] | [CEA]2 [A,EG]2 F3 F | E2 A2 B2 c2 | z4 z2 A2 | %9
 e3 d [Ec][GB][FA][EG] | [DF]3 [GB] [FA]2 [FA]2 | [GB]2 [Ac]2 [Ad]2 e2 | d4 c2 A2 | %13
 [Af]3 [Ge] [Fd][Ac][GB][FA] | [GB]2 [Gc]2 [Fd]2 [DF]2 | [CA]2[K:bass] [F,D]2 [A,DF]3 [G,CE] | %16
[M:3/4] [F,D]6 |] %17
V:2
 z4 z2 [D,D]2 | [D,A,]3 [D,A,] [D,D]3 [D,A,] | z E z [G,C] [D,F,]3 [D,F,] | %3
 [D,A,D]2 [D,D]2 [D,A,]2 D,2 | A,,6 D,2 | B,,2 B,,2 E,3 E, | A,,2 A,,2 [D,A,D]3 [D,A,D] | %7
 [E,A,C]2 [E,A,C]2 [E,^G,D]2 [E,G,E]2 | [A,,A,]6[K:treble] .[A,C]2 | %9
 [A,G]3 [A,F][K:bass] [A,,A,]2 [A,,A,]2 | [D,A,]3 [D,D] [D,D]2 [D,D]2 | %11
 [G,D]2 [E,E]2 [F,D]2[K:treble] [G,B,G]2 | F4 E2[K:bass] A,2 | [D,D]3 [D,D] [D,D]2 [D,D]2 | %14
 [G,D]2 [E,A,]2 [D,A,]2 [D,A,]2 | [A,,G,]2 B,,2 A,,3 A,, |[M:3/4] D,6 |] %17
V:3
 x8 | x8 | [A,,A,]2 A,,2 z4 | x8 | x8 | x8 | x8 | x8 | x6[K:treble] x2 | x4[K:bass] x4 | x8 | %11
 x6[K:treble] x2 | A,6[K:bass] z2 | x8 | x8 | x8 |[M:3/4] x6 |] %17
V:4
 x8 | x8 | x8 | x8 | x8 | x8 | x8 | x8 | [CA]6 (3z DE | x8 | x8 | x8 | x8 | x8 | x8 | %15
 x2[K:bass] x6 |[M:3/4] x6 |] %17

